X: 26803
T: Miller's Maggot, The
R: jig
M: 6/8
K: Gmajor
dB|:G2A ~B2A|~B2A BGE|G2A ~B2A|Bee dBA|
G2A ~B2A|~B2A Bge|gfe dBA|1 Bee dBA:|2 Bee dBd||
|:e2f gfe|d2B BAG|e2f gfe|agf bag|
e2f gfe|d2B BAG|A2B cBA|1 Bee dBd:|2 Bee dBA||

